icons/lines/airplane.svg

<svg xmlns="http://www.w3.org/2000/svg" width="24" height="24" viewBox="0 0 24 24" fill="none" stroke="currentColor" stroke-width="2" stroke-linecap="round" stroke-linejoin="round" >
  <path d="M9.03023 21.69L11.3602 19.73C11.7102 19.43 12.2902 19.43 12.6402 19.73L14.9702 21.69C15.5102 21.96 16.1702 21.69 16.3702 21.11L16.8102 19.78C16.9202 19.46 16.8102 18.99 16.5702 18.75L14.3002 16.47C14.1302 16.31 14.0002 15.99 14.0002 15.76V12.91C14.0002 12.49 14.3102 12.29 14.7002 12.45L19.6102 14.57C20.3802 14.9 21.0102 14.49 21.0102 13.65V12.36C21.0102 11.69 20.5102 10.92 19.8902 10.66L14.3002 8.25001C14.1402 8.18001 14.0002 7.97001 14.0002 7.79001V4.79001C14.0002 3.85001 13.3102 2.74001 12.4702 2.31001C12.1702 2.16001 11.8202 2.16001 11.5202 2.31001C10.6802 2.74001 9.99023 3.86001 9.99023 4.80001V7.80001C9.99023 7.98001 9.85023 8.19001 9.69023 8.26001L4.11023 10.67C3.49023 10.92 2.99023 11.69 2.99023 12.36V13.65C2.99023 14.49 3.62023 14.9 4.39023 14.57L9.30023 12.45C9.68023 12.28 10.0002 12.49 10.0002 12.91V15.76C10.0002 15.99 9.87023 16.31 9.71023 16.47L7.44023 18.75C7.20023 18.99 7.09023 19.45 7.20023 19.78L7.64023 21.11C7.82023 21.69 8.48023 21.97 9.03023 21.69Z"/>
  </svg>

<svg xmlns="http://www.w3.org/2000/svg" width="24" height="24" viewBox="0 0 24 24" fill="none" stroke="currentColor" stroke-width="2" stroke-linecap="round" stroke-linejoin="round">
  <path d="M11.36 19.73a1 1 0 0 1 1.28 0l2.33 1.96a1 1 0 0 0 1.4-.58l.44-1.33c.11-.32 0-.79-.24-1.03l-2.27-2.28a1.1 1.1 0 0 1-.3-.71v-2.85c0-.42.31-.62.7-.46l4.91 2.12c.77.33 1.4-.08 1.4-.92v-1.29c0-.67-.5-1.44-1.12-1.7L14.3 8.25a.55.55 0 0 1-.3-.46v-3c0-.94-.69-2.05-1.53-2.48a1 1 0 0 0-.95 0c-.84.43-1.53 1.55-1.53 2.49v3a.55.55 0 0 1-.3.46l-5.58 2.41c-.62.25-1.12 1.02-1.12 1.69v1.29c0 .84.63 1.25 1.4.92l4.91-2.12c.38-.17.7.04.7.46v2.85a1.16 1.16 0 0 1-.29.71l-2.27 2.28c-.24.24-.35.7-.24 1.03l.44 1.33a1 1 0 0 0 1.39.58z" />
</svg>
